X:1
T:Let Your Light So Shine
T:Let Your Light So Shine
T:Fred S. Shephard
T:Milford Hall Lyon, 1908
T:Public Domain Courtesy of the Cyber Hymnal™
C:Fred S. Shephard
Z:Public Domain
Z:Courtesy of the Cyber Hymnal™
%%score ( 1 2 ) ( 3 4 )
L:1/8
Q:1/4=95
M:6/8
K:Eb
V:1 treble 
V:2 treble 
V:3 bass 
V:4 bass 
V:1
 [EG]/[FA]/ | [GB]2 [^F=A] [_Ac][Ac][F=A] | [GB]3 [EG]2 [GB]/[Ge]/ | [Ae]2 [Ad] [Ae]2 [Ac] | %4
w: 1.~Let your|light shine forth in the|dark- ness Of a|world op- pressed by|
w: 2.~Let your|lips speak for- th the|prais- es Of the|Christ who set you|
w: 3.~Let your|life re- ve- al the|rich- es Of a|soul in- spired by|
w: 4.~Let your|love show for- th in|ser- vice That the|world in you may|
 [GB]3- [GB]2 [GB] | [FB]2 [FA] [Fd]2 [Ac] | [Ac]2 [GB] [Ge]2 [Ge]/[Ge]/ | %7
w: sin, * On|hu- man hearts that|need your help T- o|
w: free, * From|slav- ish fear and|sin- ful life To His|
w: love, * That|o- thers, too, may|catch the strain A- nd|
w: see * The|liv- ing Christ per-|vades your life, Hi- s|
 [Fd][Fd][Fd] [Fd]2 [Ec] | [DB]3- [DB]2 ||"^Refrain" [DB]/[FA]/ | [EG]3- [EG]2 [Ec] | %11
w: light- en the gloom with-|in. *|||
w: jo- y- ous li- ber-|ty. *|Let your|light * so|
w: hon- or your God a-|bove. *|||
w: Spir- it a- bid- ing|free. *|||
 B3- [GB]2 [GB]/[GB]/ | [Ac]3- [Ac]2 [Ae] | B3- [GB]2 [GB] | [Ge]2 [Ge] [Ge][Ge][Fd] | %15
w: ||||
w: shine, Let your light|* * so|shine That they|* may see your good|
w: ||||
w: ||||
 e3- [Ee]2 [Ec] | [EB][E=A][Dc] (B_A)[DF] | E3- E2 |] %18
w: |||
w: works, * And|* glor- i- fy * God|in *|
w: |||
w: |||
V:2
 x | x6 | x6 | x6 | x6 | x6 | x6 | x6 | x5 || x | x6 | E3/2 E/E/F/ x3 | x6 | G3/2 G/^F/A/ x3 | x6 | %15
 E2 E x3 | x3 D2 x | E3- E2 |] %18
V:3
 [E,B,]/[E,B,]/ | [E,E]2 [E,E] [E,E][E,E][E,C] | [E,B,]3 [E,B,]2 [E,E]/[E,E]/ | %3
w: ~ ~|~ ~ ~ ~ ~|~ ~ ~ ~|
 [A,C]2 [A,=B,] [A,C]2 [A,E] | [E,E]3- [E,E]2 [E,E] | [B,D]2 [B,D] B,2 [B,D] | %6
w: ~ ~ ~ ~|~ * ~|~ ~ ~ ~|
 [E,E]2 [E,E] [E,B,]2 [E,B,]/[E,B,]/ | [F,B,][F,B,][F,B,] [F,=A,]2 [F,A,] | [B,,B,]3- [B,,B,]2 || %9
w: ~ ~ ~ ~ ~|~ ~ ~ ~ ~|~ *|
 z | z2 [E,B,] [E,B,]2 [E,A,] | G,>G, (G,/A,/) [E,B,]2 z | z2 [A,E] [A,E]2 [A,,C] | %13
w: |Your light so|shine be- fore * Your|light so shine|
 B,>B, (=A,/C/) [E,B,]2 [E,B,] | [E,B,]2 [E,B,] [E,B,][E,B,][E,B,] | %15
w: be- fore men; * ~ ~|* ~ ~ ~ good|
 [G,B,]2 [G,_D] [A,C]2 [A,,A,] | [B,,G,][B,,^F,][B,,A,] [B,,=F,]2 [B,,A,] | [E,G,]3- [E,G,]2 |] %18
w: works, * * *|||
V:4
 x | x6 | x6 | x6 | x6 | x3 B,2 x | x6 | x6 | x5 || x | x6 | E,3- x3 | x6 | E,3- x3 | x6 | x6 | %16
 x6 | x5 |] %18

